manual/svg/flags/hm.svg

<svg xmlns="http://www.w3.org/2000/svg" xmlns:xlink="http://www.w3.org/1999/xlink" viewBox="0 0 10080 5040">
<defs>
<clipPath id="c">
<path d="M0,0V1.5H7V3H6zM6,0H3V3.5H0V3z"/>
</clipPath>
<path id="Star7" d="M0,-360 69.421398,-144.155019 281.459334,-224.456329 155.988466,-35.603349 350.974048,80.107536 125.093037,99.758368 156.198146,324.348792 0,160 -156.198146,324.348792 -125.093037,99.758368 -350.974048,80.107536 -155.988466,-35.603349 -281.459334,-224.456329 -69.421398,-144.155019z"/>
<path id="Star5" d="M0,-210 54.859957,-75.508253 199.721868,-64.893569 88.765275,28.841586 123.434903,169.893569 0,93.333333 -123.434903,169.893569 -88.765275,28.841586 -199.721868,-64.893569 -54.859957,-75.508253z"/>
<use id="Cstar" xlink:href="#Star7" transform="scale(2.1)"/>
</defs>
<g transform="scale(840)">
<rect width="12" height="6" fill="#00008b"/>
<path d="M0,0 6,3M6,0 0,3" stroke="#fff" stroke-width="0.6"/>
<path d="M0,0 6,3M6,0 0,3" stroke="#f00" stroke-width="0.4" clip-path="url(#c)"/>
<path d="M3,0V3.5M0,1.5H7" stroke="#fff"/>
<path d="M3,0V3.5M0,1.5H7" stroke="#f00" stroke-width="0.6"/>
<path d="M0,3H6V0H8V4H0z" fill="#00008b"/>
</g>
<g fill="#fff">
<use id="Comwlth" xlink:href="#Cstar" x="2520" y="3780"/>
<use id="&#x3B1;Crucis" xlink:href="#Star7" x="7560" y="4200"/>
<use id="&#x3B2;Crucis" xlink:href="#Star7" x="6300" y="2205"/>
<use id="&#x3B3;Crucis" xlink:href="#Star7" x="7560" y="840"/>
<use id="&#x3B4;Crucis" xlink:href="#Star7" x="8680" y="1869"/>
<use id="&#x3B5;Crucis" xlink:href="#Star5" x="8064" y="2730"/>
</g>
</svg>

<svg viewBox="0 0 10080 5040" xmlns="http://www.w3.org/2000/svg" xmlns:xlink="http://www.w3.org/1999/xlink">
<defs>
<clipPath id="hm-b">
<path d="M0,0V1.5H7V3H6zM6,0H3V3.5H0V3z"/>
</clipPath>
<path id="hm-a" d="m0-360 69.421 215.84 212.04-80.301-125.47 188.85 194.99 115.71-225.88 19.651 31.105 224.59-156.2-164.35-156.2 164.35 31.105-224.59-225.88-19.651 194.99-115.71-125.47-188.85 212.04 80.301z"/>
<path id="hm-c" d="m0-210 54.86 134.49 144.86 10.615-110.96 93.735 34.67 141.05-123.43-76.56-123.43 76.56 34.67-141.05-110.96-93.735 144.86-10.615z"/>
<use id="hm-d" transform="scale(2.1)" xlink:href="#hm-a"/>
</defs>
<g transform="scale(840)">
<rect width="12" height="6" fill="#00008b"/>
<path d="m0 0 6 3m0-3-6 3" stroke="#fff" stroke-width=".6"/>
<path d="m0 0 6 3m0-3-6 3" clip-path="url(#hm-b)" stroke="#f00" stroke-width=".4"/>
<path d="m3 0v3.5m-3-2h7" stroke="#fff"/>
<path d="m3 0v3.5m-3-2h7" stroke="#f00" stroke-width=".6"/>
<path d="M0,3H6V0H8V4H0z" fill="#00008b"/>
</g>
<g fill="#fff">
<use x="2520" y="3780" xlink:href="#hm-d"/>
<use x="7560" y="4200" xlink:href="#hm-a"/>
<use x="6300" y="2205" xlink:href="#hm-a"/>
<use x="7560" y="840" xlink:href="#hm-a"/>
<use x="8680" y="1869" xlink:href="#hm-a"/>
<use x="8064" y="2730" xlink:href="#hm-c"/>
</g>
</svg>
